X:594
T:Moonlight Ramble., The
T:an siu.bal faoi soluis n-gealui.ge.
R:air
N:"Slow."
B:O'Neill's 594
Z:Transcription by John B. Walsh (walsh@math.ubc.ca)
M:3/4
L:1/16
<START_ANN> %Q:50 <END_ANN>
K:D
d2edc|B4 A2AB c2A2|G2GFE D4 "f"DEFG|ABAG ""F2AG ""E2GF|D2D2 D4:|
ABcd|"#~"e3f .g2.f2.e2.d2|Tc3B A4 efge|""d3c/B/ A3B/A/ AGEF|D2D2D2 z2 d2dc|
B4 A2AB c2A2|G2GFE D4 "f"DEFG|ABAG FAGF EGFE|D2D2 D4||
